material/.icons/material/email-sync-outline.svg

<svg xmlns="http://www.w3.org/2000/svg" viewBox="0 0 24 24"><path d="M3 4c-1.1 0-2 .9-2 2v12c0 1.1.9 2 2 2h10.5a6.5 6.5 0 01-.5-2H3V8l8 5 8-5v3a6.5 6.5 0 01.5 0 6.5 6.5 0 011.5.18V6c0-1.1-.9-2-2-2H3m0 2h16l-8 5-8-5m16 6l-2.25 2.25L19 16.5V15a2.5 2.5 0 012.5 2.5c0 .4-.09.78-.26 1.12l1.09 1.09c.42-.63.67-1.39.67-2.21 0-2.21-1.79-4-4-4V12m-3.33 3.29c-.42.63-.67 1.39-.67 2.21 0 2.21 1.79 4 4 4V23l2.25-2.25L19 18.5V20a2.5 2.5 0 01-2.5-2.5c0-.4.09-.78.26-1.12l-1.09-1.09z"/></svg>

<?xml version="1.0" encoding="UTF-8"?><!DOCTYPE svg PUBLIC "-//W3C//DTD SVG 1.1//EN" "http://www.w3.org/Graphics/SVG/1.1/DTD/svg11.dtd"><svg xmlns="http://www.w3.org/2000/svg" xmlns:xlink="http://www.w3.org/1999/xlink" version="1.1" id="mdi-email-sync-outline" width="24" height="24" viewBox="0 0 24 24"><path d="M3 4C1.9 4 1 4.9 1 6V18C1 19.1 1.9 20 3 20H13.5A6.5 6.5 0 0 1 13 18H3V8L11 13L19 8V11A6.5 6.5 0 0 1 19.5 11A6.5 6.5 0 0 1 21 11.18V6C21 4.9 20.1 4 19 4H3M3 6H19L11 11L3 6M19 12L16.75 14.25L19 16.5V15C20.38 15 21.5 16.12 21.5 17.5C21.5 17.9 21.41 18.28 21.24 18.62L22.33 19.71C22.75 19.08 23 18.32 23 17.5C23 15.29 21.21 13.5 19 13.5V12M15.67 15.29C15.25 15.92 15 16.68 15 17.5C15 19.71 16.79 21.5 19 21.5V23L21.25 20.75L19 18.5V20C17.62 20 16.5 18.88 16.5 17.5C16.5 17.1 16.59 16.72 16.76 16.38L15.67 15.29Z" /></svg>
